svgs/duotone/microphone-stand.svg

<svg xmlns="http://www.w3.org/2000/svg" viewBox="0 0 512 512"><!--! Font Awesome Pro 6.0.0-alpha3 by @fontawesome - https://fontawesome.com License - https://fontawesome.com/license (Commercial License) --><defs><style>.fa-secondary{opacity:.4}</style></defs><path class="fa-primary" d="M289.5 60.47C265.8 84.35 255 116.1 256.5 147.2l108.3 108.3c31.13 1.5 62.88-9.251 86.76-33l2.125-2.25L291.8 58.35L289.5 60.47zM478.5 33.47c-44.76-44.63-117.3-44.63-162 0l-2.125 2.25l161.9 161.9l2.251-2.125C523.2 150.7 523.2 78.22 478.5 33.47zM224 495.1C224 504.9 231.1 512 240 512l31.98-.0023c8.875 0 16.02-7.146 16.02-16.02l.0027-171l-64.01 57.95L224 495.1z"/><path class="fa-secondary" d="M6.73 423.1c-9.375 10.63-8.875 26.63 1 36.63l44.51 44.38c9.875 10 26 10.5 36.63 1.125l275.9-249.8L256.5 147.2L6.73 423.1zM314.4 35.72l-22.63 22.63l161.9 161.9l22.63-22.63L314.4 35.72z"/></svg>

<svg xmlns="http://www.w3.org/2000/svg" viewBox="0 0 512 512"><!-- Font Awesome Pro 6.0.0-alpha2 by @fontawesome - https://fontawesome.com License - https://fontawesome.com/license (Commercial License) --><defs><style>.fa-secondary{opacity:.4}</style></defs><path d="M6.73 423.117C-2.645 433.746 -2.145 449.746 7.73 459.746L52.236 504.125C62.111 514.125 78.238 514.625 88.863 505.25L364.767 255.484L256.505 147.227L6.73 423.117ZM314.386 35.719L291.759 58.348L453.65 220.234L476.277 197.605L314.386 35.719Z" class="fa-secondary"/><path d="M289.508 60.473C265.756 84.352 255.004 116.102 256.504 147.227L364.766 255.484C395.893 256.984 427.646 246.234 451.523 222.484L453.648 220.234L291.758 58.348L289.508 60.473ZM478.527 33.469C433.771 -11.156 361.264 -11.156 316.51 33.469L314.385 35.719L476.275 197.605L478.527 195.48C523.156 150.727 523.156 78.223 478.527 33.469ZM224 496C224 504.875 231.127 512 240.002 512H272.006C280.881 512 288.008 504.875 288.008 496V324.969L224 382.914V496Z" class="fa-primary"/></svg>
